images/icons/twitter.svg

<?xml version="1.0" encoding="utf-8"?>
<!-- Generator: Adobe Illustrator 24.1.2, SVG Export Plug-In . SVG Version: 6.00 Build 0)  -->
<svg version="1.1" id="Слой_1" xmlns="http://www.w3.org/2000/svg" xmlns:xlink="http://www.w3.org/1999/xlink" x="0px" y="0px"
	 viewBox="0 0 32 32" style="enable-background:new 0 0 32 32;" xml:space="preserve">
<style type="text/css">
	.st0{fill-rule:evenodd;clip-rule:evenodd;fill:#444A34;}
</style>
<path class="st0" d="M0,16C0,7.2,7.2,0,16,0c8.8,0,16,7.2,16,16c0,8.8-7.2,16-16,16C7.2,32,0,24.8,0,16z M22.1,11.5
	c0.7-0.1,1.3-0.2,1.9-0.5c-0.4,0.7-1,1.3-1.7,1.7c0.2,4.7-3.2,9.8-9.3,9.8c-1.8,0-3.5-0.6-5-1.5c1.7,0.2,3.5-0.3,4.7-1.2
	c-1.5,0-2.7-1-3.1-2.3c0.5,0.1,1,0,1.5-0.1c-1.5-0.4-2.6-1.8-2.6-3.3c0.5,0.2,1,0.4,1.5,0.4c-1.4-1-1.9-2.9-1-4.4
	c1.7,2,4.1,3.3,6.8,3.4c-0.5-2,1.1-4,3.2-4c0.9,0,1.8,0.4,2.4,1c0.8-0.2,1.5-0.4,2.1-0.8C23.3,10.5,22.8,11.1,22.1,11.5z"/>
</svg>

<svg width="32" height="32" viewBox="0 0 32 32" fill="none" xmlns="http://www.w3.org/2000/svg">
<path fill-rule="evenodd" clip-rule="evenodd" d="M0 16C0 7.16344 7.16344 0 16 0C24.8366 0 32 7.16344 32 16C32 24.8366 24.8366 32 16 32C7.16344 32 0 24.8366 0 16ZM22.1 11.5C22.8 11.4 23.4 11.3 24 11C23.6 11.7 23 12.3 22.3 12.7C22.5 17.4 19.1 22.5 13 22.5C11.2 22.5 9.5 21.9 8 21C9.7 21.2 11.5 20.7 12.7 19.8C11.2 19.8 10 18.8 9.6 17.5C10.1 17.6 10.6 17.5 11.1 17.4C9.6 17 8.5 15.6 8.5 14.1C9 14.3 9.5 14.5 10 14.5C8.6 13.5 8.1 11.6 9 10.1C10.7 12.1 13.1 13.4 15.8 13.5C15.3 11.5 16.9 9.5 19 9.5C19.9 9.5 20.8 9.9 21.4 10.5C22.2 10.3 22.9 10.1 23.5 9.7C23.3 10.5 22.8 11.1 22.1 11.5Z" fill="black"/>
</svg>
